**kern
*MM60
*k[]
*M4/4
=1
1r
=2
1r
=3
1r
=4
1r
=5
1r
=6
1r
=7
1r
=8
1r
=9
1r
=10
1r
=11
1r
=12
1r
=13
1r
=14
8r
8D
8C#
8D
4AA
[4G
=15
8G]
16F
16E
8F
8D
4.E
8E
=16
8D
8F
8G
8GG
8C
8E
8F
8FF
=17
8BB
8D
8E
8EE
8AA
8D
8E
8EE
=18
4AA
8r
8A
8G#
8A
8E
[8B
=19
8B]
16A
16G#
8A
8F
16D
16E
16C
16D
16BB
16E
16D
16E
=20
8AA
8AA
8BB
8C
4D
4r
=21
8r
8G
8A
8B
4c
4r
=22
8r
8F
8G
8A
4B-
4A
=23
4G
4C
4F
4r
=24
1r
=25
2r
8r
8F
8E
8F
=26
4C
[4B-
8B-]
16A
16G
8A
8F
=27
4.G
8G
4F
8r
8F
=28
8E
8EE
8r
8E
8D
8DD
8r
8D
=29
4C
8r
8C
8G
8A
8B
8G
=30
8c
8B
8A
8G
16F
16G
16E
16F
16D
16G
16F
16G
=31
16C
16D
16BB
16C
16AA
16D
16C
16D
8GG
8D
8G
8GG
=32
8AA
8D
8G
8GG
8C
8E
8F
8FF
=33
8BB
8D
8E
8EE
4AA
4r
=34
1r
=35
1r
=36
8r
8AA
8GG#
8AA
4EE
[4D
=37
8D]
16C
16BB
8C
8AA
4BB
4E
=38
8A
8G
8F
8E
8D
8G
8A
8AA
=39
4D
4r
8r
8AA
8AA
8AA
=40
4AA
4r
8r
8AA
8AA
8AA
=41
8AA
8AA
8BB
8C#
4D
4r
=42
8r
8GG
8AA
8BB
4C
4r
=43
8r
8F
8E
8F
4C
4r
=44
8r
8C
8C
8C
4C
4r
=45
8r
8C
8D
8E
4F
4r
=46
8r
8B-
8A
8B-
4F
4r
=47
8r
8F
8F
8F
4F
4r
=48
8r
16F
16A
16G
16B-
16A
16c
8B-
8E-
8F
8FF
=49
4BB-
8r
8GG
8AA
8D
8A
8AA
=50
4D
4r
8r
16GG
16BB
16AA
16C
16BB
16D
=51
4C
4r
8r
16FF
16AA
16GG
16BB-
16AA
16C
=52
4BB-
4r
8r
16EE-
16GG
16FF
16AA
16GG
16BB-
=53
4AA
4r
8r
16D
16F#
16E
16G
16F#
16A
=54
8G
8C
8D
8DD
4GG
4r
=55
8r
8D
8D
8D
8D
8D
8E
8F#
=56
8G
8C
8D
8DD
4GG
8r
[8G
=57
4G]
8r
8F
4E
4A
=58
4D
4r
8r
8D
8C#
8D
=59
4AA
[4G
8G]
16F
16E
8F
8D
=60
4E
4A
4D
8r
8G
=61
4C
8r
8F
4BB-
8r
8E
=62
8AA
8GG
8FF
8GG#
4AA
4AA
=63
1DD
==
*-
